X:22
T:Dusty Miller,The. TJD.22
M:6/8
L:1/8
Q:1/4=100
S:T.J.Dixon MS1, Lincolnshire, 1798
N:Identical to TJD.19 except for omission of crotchet in final bar.
R:slip jig
A:Lincolnshire, Holton le Moor
Z:Vmp.R.Greig2010
K:G
Bcd BAG|FAA cBA|Bcd BAG|DGG BAG:|!
|:Bcd efg|aAA cBA|Bcd eg/f/e/f/|gag BAG:|]

